proprietary/assets/icons/gebruiksvoorwerpen/winkelwagen.svg

<svg height="64" viewBox="0 0 64 64" width="64" xmlns="http://www.w3.org/2000/svg"><path d="m0 0h64v64h-64z" fill="none"/><circle cx="20" cy="53" r="3.9639"/><circle cx="46" cy="53" r="3.9639"/><path d="m21.04 39h27.17s3.2729.3184 4-4c.6098-3.623 2.6001-19 2.6001-19s.0498-3-2.9502-3c-2.6847 0-24.3391 0-32.6659 0l-.4606-3.4038c-.2012-1.48-1.4795-2.5962-2.9727-2.5962h-5.7607c-1.1045 0-2 .8955-2 2 0 2.5825 4.3989 2.8007 7.0174 2.9585l3.1189 23.0452c-.1462.0368-4.1363 1.0877-4.1363 5.9963 0 4 2.2354 7 6.647 7h28.4873c2.3769 0 2.5959-3.8188 0-4 0 0-15.0401-.4707-28.0943-.75-.7646-.0166-2.2402-.25-2.2402-2.25 0-1.2222.7802-2 2.2402-2zm6.96-4h-5.8287l-.9474-7h6.7761zm15-18h7.6802l-1.3971 9.9387c-.0878.0222-.2753-.0246-.3378-.2981-.3165-1.3849-.6169-2.6406-.6169-2.6406h-5.3284zm0 11h6.1339l-.984 7h-5.1499zm-11-11h7v9.8758c-.0781.0226-.2605.0267-.3438-.1883-.5234-1.3516-1.0607-2.6875-1.0607-2.6875h-5.5955zm0 11h7v7h-7zm-4-11v9.8758c-.0797.0315-.2551.0308-.3399-.1836-.5117-1.2938-1.0646-2.6922-1.0646-2.6922h-5.9128l-.9473-7z"/></svg>

<?xml version="1.0" encoding="utf-8"?>
<!-- Generator: Adobe Illustrator 17.1.0, SVG Export Plug-In . SVG Version: 6.00 Build 0)  -->
<svg version="1.2" baseProfile="tiny" xmlns="http://www.w3.org/2000/svg" xmlns:xlink="http://www.w3.org/1999/xlink" x="0px"
	 y="0px" width="64px" height="64px" viewBox="0 0 64 64" xml:space="preserve">
<g id="_x36_4px_Boxes">
	<rect fill="none" width="64" height="64"/>
</g>
<g id="Production">
	<g>
		<circle cx="20" cy="53" r="3.9639"/>
		<circle cx="46" cy="53" r="3.9639"/>
		<path d="M21.04,39c1.46,0,27.17,0,27.17,0s3.2729,0.3184,4-4c0.6098-3.623,2.6001-19,2.6001-19s0.0498-3-2.9502-3
			c-2.6847,0-24.3391,0-32.6659,0l-0.4606-3.4038C18.5322,8.1162,17.2539,7,15.7607,7H10C8.8955,7,8,7.8955,8,9
			c0,2.5825,4.3989,2.8007,7.0174,2.9585l3.1189,23.0452C17.9901,35.0405,14,36.0914,14,41c0,4,2.2354,7,6.647,7
			c4.706,0,28.4873,0,28.4873,0c2.3769,0,2.5959-3.8188,0-4c0,0-15.0401-0.4707-28.0943-0.75C20.2754,43.2334,18.7998,43,18.7998,41
			C18.7998,39.7778,19.58,39,21.04,39z M28,35h-5.8287l-0.9474-7H28V35z M43,17h7.6802l-1.3971,9.9387
			c-0.0878,0.0222-0.2753-0.0246-0.3378-0.2981C48.6288,25.2557,48.3284,24,48.3284,24H43V17z M43,28h6.1339l-0.984,7H43V28z M32,17
			h7v9.8758c-0.0781,0.0226-0.2605,0.0267-0.3438-0.1883C38.1328,25.3359,37.5955,24,37.5955,24H32V17z M32,28h7v7h-7V28z M28,17
			v9.8758c-0.0797,0.0315-0.2551,0.0308-0.3399-0.1836C27.1484,25.3984,26.5955,24,26.5955,24h-5.9128l-0.9473-7H28z"/>
	</g>
</g>
</svg>
